X: 280
T: Guan hua
L: 1/8
M: 2/4
K: G
zd2e [I:setbarnb 1]| 
d B d/ A/ z | 
z d B B | 
d3d | 
B d d G | 
A2A F | 
A ED2 | 
F F/ G/A2 | 
F F/ G/A2 | 
F G F G | 
F G A A | 
z e d e | 
d e d B | 
d A/ A/ B d/ d/ | 
G ED2 |]

@@@ Tune index: 9154
